OneDrive/Desktop/satoshe-sluggers/public/icons/nft-sidebar-categories/background-blue.svg

<svg width="10" height="10" viewBox="0 0 10 10" fill="none" xmlns="http://www.w3.org/2000/svg">
<path d="M9.06775 6.40103L7.69619 5.02947C7.5295 4.86283 7.30345 4.76922 7.06775 4.76922C6.83205 4.76922 6.606 4.86283 6.4393 5.02947L2.40108 9.06769M1.95664 1.06772H8.17886C8.66978 1.06772 9.06775 1.46569 9.06775 1.95661V8.17883C9.06775 8.66975 8.66978 9.06772 8.17886 9.06772H1.95664C1.46572 9.06772 1.06775 8.66975 1.06775 8.17883V1.95661C1.06775 1.46569 1.46572 1.06772 1.95664 1.06772ZM4.6233 3.73439C4.6233 4.2253 4.22534 4.62327 3.73442 4.62327C3.2435 4.62327 2.84553 4.2253 2.84553 3.73439C2.84553 3.24347 3.2435 2.8455 3.73442 2.8455C4.22534 2.8455 4.6233 3.24347 4.6233 3.73439Z" stroke="#60A5FA" stroke-width="0.737515" stroke-linecap="round" stroke-linejoin="round"/>
</svg>

<svg xmlns="http://www.w3.org/2000/svg" width="10" height="10" fill="none"><path stroke="#60A5FA" stroke-linecap="round" stroke-linejoin="round" stroke-width=".738" d="M9.068 6.401 7.696 5.029a.89.89 0 0 0-1.257 0L2.401 9.068m-.444-8h6.222c.49 0 .889.398.889.889v6.222c0 .49-.398.889-.89.889H1.958a.89.89 0 0 1-.89-.89V1.958c0-.491.399-.89.89-.89m2.666 2.666a.889.889 0 1 1-1.777 0 .889.889 0 0 1 1.777 0"/></svg>
